lib/assets/icons/svg/outlined-alert-indeterminate.svg

<svg xmlns="http://www.w3.org/2000/svg" viewBox="0 0 24 24"><path d="M12.007 21.5C4.694 21.5.123 13.583 3.78 7.25 7.436.917 16.578.917 20.234 7.25A9.497 9.497 0 0 1 21.507 12a9.511 9.511 0 0 1-9.5 9.5zm0-18c-6.543 0-10.633 7.083-7.361 12.75 3.271 5.667 11.451 5.667 14.722 0A8.5 8.5 0 0 0 20.507 12a8.51 8.51 0 0 0-8.5-8.5zm6 9h-12a.5.5 0 0 1 0-1h12a.5.5 0 0 1 0 1z"/></svg>

<svg viewBox="0 0 24 24" xmlns="http://www.w3.org/2000/svg">
  <path  d="M 12.007 21.5 C 4.694 21.5 0.123 13.583 3.78 7.25 C 7.436 0.917 16.578 0.917 20.234 7.25 C 21.068 8.694 21.507 10.332 21.507 12 C 21.501 17.244 17.251 21.494 12.007 21.5 Z M 12.007 3.5 C 5.464 3.5 1.374 10.583 4.646 16.25 C 7.917 21.917 16.097 21.917 19.368 16.25 C 20.114 14.958 20.507 13.492 20.507 12 C 20.501 7.308 16.699 3.506 12.007 3.5 Z M 18.007 12.5 L 6.007 12.5 C 5.622 12.5 5.382 12.083 5.574 11.75 C 5.663 11.595 5.828 11.5 6.007 11.5 L 18.007 11.5 C 18.392 11.5 18.632 11.917 18.44 12.25 C 18.351 12.405 18.186 12.5 18.007 12.5 Z"/>
</svg>
